!!!OTL: ES FUHR EIN BAUR INS HOLZ
!!!ARE: Europa, Mitteleuropa, Deutschland
!!!SCT: E0149
!!!YEM: Copyright 1995, estate of Helmut Schaffrath.
**kern
*ICvox
*Ivox
*M4/4
*k[]
*C:
{4c
=1
4c
4c
4A
4A
=2
4G
4G
4E}
{4E
=3
4G
4G
4F
4F
=4
2E
4r}
{4G
=5
4c
4c
4d
4d
=6
2e
4c}
{4f
=7
4e
4c
4c
4B
=8
2c
4A
4B
=9
2c
4A
4B
=10
2c
4r}
==
!!!AGN: erzaehlendes Volks - Lied, Scherz, Schwank, betrogener Ehemann     Ballade ?
!!!ONB: ESAC (Essen Associative Code) Database: ERK1
!!!AMT: simple quadruple
!!!AIN: vox
!!!EED: Helmut Schaffrath
!!!EEV: 1.0
*-
!!!title: @{OTL} [@{SCT}]
